public/images/home/codeigniter.svg

<svg width="162" height="43" viewBox="0 0 162 43" fill="none" xmlns="http://www.w3.org/2000/svg">
<path d="M49.4606 30.2215C47.0495 30.2215 46.3485 28.8191 46.3485 26.7178C46.3485 26.0175 46.4365 25.2274 46.5449 24.3952C47.0731 20.7613 48.3625 18.6822 51.4747 18.6822C53.5795 18.6822 54.6058 19.6227 54.6058 21.3306V22.1633H56.694C56.7172 22.1633 56.7172 21.3968 56.7172 21.2223C56.7172 18.7266 55.2044 16.3596 51.4779 16.3596C46.4142 16.3596 44.3321 19.1076 43.5648 24.4947C43.455 25.2177 43.3892 25.8925 43.3892 26.6127C43.3892 29.7879 44.6397 32.6761 49.1108 32.6761C52.5079 32.6761 54.5256 31.0214 55.7085 28.9848L53.7134 27.6425C52.4208 29.6796 51.0169 30.2215 49.4606 30.2215ZM63.1611 20.1925C59.1051 20.1925 57.3528 22.2716 56.7612 26.4095C56.6917 26.8885 56.6546 27.3715 56.65 27.8554C56.65 30.5261 57.8996 32.6515 61.362 32.6515C65.4179 32.6515 67.1938 30.4831 67.7855 26.4095C67.8513 25.8846 67.8953 25.4028 67.8953 24.9214C67.8962 22.2068 66.6036 20.1925 63.1611 20.1925ZM64.849 26.4109C64.4102 29.4116 63.4687 30.3312 61.6919 30.3312C60.2681 30.3312 59.5671 29.7397 59.5671 27.9661C59.5671 27.5278 59.6116 27.0029 59.6987 26.4109C60.1374 23.4334 61.014 22.5137 62.8113 22.5137C64.2582 22.5137 64.9805 23.1047 64.9805 24.9001C64.9805 25.338 64.9361 25.842 64.849 26.4109ZM78.0907 16.5771L77.412 20.597C77.3684 20.9465 77.3907 20.8303 77.5232 21.1589C76.8875 20.6775 75.7468 20.3591 74.9795 20.3591C71.3406 20.3591 69.3029 22.0045 68.6459 26.603C68.5692 27.0884 68.5324 27.5793 68.5361 28.0707C68.5361 31.4222 70.5084 32.6714 73.16 32.6714C74.2794 32.6714 75.3747 32.6946 76.2286 31.973L76.4469 33.3352H78.5517L81.0064 16.5771H78.0907ZM76.0086 29.6953C75.0231 30.285 74.0594 30.4183 73.4677 30.4183C71.8674 30.4183 71.4291 29.5856 71.4291 28.2507C71.4291 27.7467 71.4949 27.157 71.5834 26.5201C72.0865 23.039 73.205 22.4248 74.652 22.4248C75.5934 22.4248 76.3162 22.5789 76.9973 22.952L76.0086 29.6953ZM87.4077 20.1925C83.3953 20.1925 81.5119 22.0962 80.8753 26.4095C80.8086 26.9358 80.7646 27.4398 80.7646 27.9212C80.7646 30.8774 82.2778 32.6515 85.6082 32.6515C88.1949 32.6515 90.1256 31.5777 91.1551 29.6069L88.9408 28.7089C88.3061 29.6717 87.4513 30.3289 85.9385 30.3289C84.3169 30.3289 83.6589 29.8929 83.6589 28.4474C83.6589 28.1623 83.6812 27.7481 83.7252 27.7481H91.6369C91.7481 26.6307 91.8778 25.8411 91.8778 25.1862C91.8778 22.9978 91.0457 20.1925 87.4077 20.1925ZM88.9195 25.5148H84.0973C84.5805 24.3975 85.3899 22.6683 87.0565 22.6683C88.3492 22.6683 88.9858 23.4232 88.9858 24.715C88.9844 24.9339 88.9645 25.5148 88.9195 25.5148ZM100.313 19.9286L100.576 17.6945H94.3937L94.1319 19.9286H95.7535L94.0013 31.1005H92.3773L92.116 33.3352H98.2967L98.5608 31.1005H96.9378L98.6905 19.9286H100.313ZM112.874 23.2802L113.664 21.046H111.538L110.004 21.3621C109.149 20.8159 107.987 20.4058 106.892 20.4058C103.757 20.4058 101.084 21.9184 101.084 25.357C101.084 26.3216 101.434 27.1001 101.849 27.6263C101.193 27.9758 100.623 28.5613 100.623 29.3509C100.623 29.7008 100.754 30.0591 101.018 30.3868C99.7015 31.1764 98.893 32.4849 98.893 34.0165C98.893 36.9741 101.983 37.605 104.35 37.605C107.331 37.605 110.882 36.9246 110.882 33.1361C110.882 31.8448 110.072 30.8358 107.726 30.3979L103.496 29.6083C103.014 29.5199 102.904 29.3667 102.904 29.1477C102.904 28.8191 103.104 28.6451 103.431 28.6451L103.716 28.6886C104.286 28.8196 104.944 28.8862 105.623 28.8862C108.671 28.8862 111.388 27.5717 111.388 24.1559C111.388 23.6736 111.301 23.3473 111.082 22.821C111.454 22.9969 111.937 23.2815 112.132 23.2815L112.874 23.2802ZM106.847 32.3442C107.679 32.4983 107.964 32.8043 107.964 33.3518C107.964 35.1259 106.057 35.3449 104.677 35.3449C102.572 35.3449 101.784 34.8422 101.784 33.7239C101.784 32.7381 102.068 32.2794 102.727 31.5777L106.847 32.3442ZM105.947 26.6085C104.676 26.6085 103.974 26.1494 103.974 25.0534C103.974 23.4334 104.917 22.4915 106.561 22.4915C107.876 22.4915 108.513 23.039 108.513 24.1105C108.513 25.7314 107.591 26.6085 105.947 26.6085ZM120.661 20.1925C119.433 20.1925 118.338 20.7942 116.978 21.8661L116.781 21.046H114.369L112.682 33.3347H115.597L116.869 24.0156C117.724 23.4903 118.776 22.7275 119.674 22.7275C120.77 22.7275 121.165 23.2556 121.165 24.2623C121.165 24.5035 121.142 25.2177 121.098 25.4801L120.026 33.3347H122.941L124.014 25.4162C124.058 25.0459 124.102 24.4354 124.102 24.086C124.103 22.0031 123.116 20.1925 120.661 20.1925ZM129.64 30.2563L129.662 29.9554L130.933 21.046H126.088L125.783 23.2802H127.908C127.732 23.2802 127.623 23.4759 127.601 23.6523L126.724 29.5861C126.681 29.8716 126.66 30.4659 126.66 30.7052C126.66 32.2377 127.492 33.3352 129.2 33.3352H130.691L131.02 31.1005H130.078C129.749 31.1005 129.64 30.5187 129.64 30.2563ZM131.524 16.5771H128.675C128.499 16.5771 128.499 15.9324 128.478 16.1513L128.082 19.2996C128.06 19.4977 128.06 19.9291 128.235 19.9291H131.086C131.262 19.9291 131.262 19.1635 131.283 18.9645L131.679 16.5345C131.701 16.3156 131.701 16.5771 131.524 16.5771ZM137.469 30.3308C136.747 30.3308 136.396 30.0239 136.396 29.3681L136.418 29.3231L137.339 23.2802H140.67L141.678 21.046H137.645L138.324 16.1291L135.256 17.109L134.707 21.046H132.932L132.626 23.2802H134.686C134.489 24.3975 134.291 23.6727 134.27 23.8925L133.481 29.1912C133.437 29.4328 133.437 29.6078 133.437 29.8258C133.437 31.9063 134.971 32.6849 136.814 32.6849C138.523 32.6849 139.904 32.1864 140.979 31.287L139.619 29.6161C138.938 30.0313 138.478 30.3308 137.469 30.3308ZM148.166 20.1925C144.155 20.1925 142.27 22.0962 141.634 26.4095C141.568 26.9358 141.524 27.4398 141.524 27.9212C141.524 30.8774 143.037 32.6515 146.368 32.6515C148.955 32.6515 150.885 31.5777 151.914 29.6069L149.701 28.7089C149.066 29.6717 148.21 30.3289 146.697 30.3289C145.076 30.3289 144.417 29.8929 144.417 28.4474C144.417 28.1623 144.441 27.7481 144.485 27.7481H152.397C152.506 26.6307 152.638 25.8411 152.638 25.1862C152.638 22.9978 151.805 20.1925 148.166 20.1925ZM149.679 25.5148H144.857C145.339 24.3975 146.149 22.6683 147.816 22.6683C149.109 22.6683 149.746 23.4232 149.746 24.715C149.744 24.9339 149.723 25.5148 149.679 25.5148ZM160.705 20.192C159.653 20.192 158.666 20.7946 157.679 21.7342L157.504 21.046H155.094L153.406 33.3347H156.343L157.636 23.8184C158.404 23.3598 159.28 22.9677 160.113 22.9677C160.64 22.9677 161.143 22.884 161.625 22.9492L162 20.4105C161.559 20.323 161.121 20.192 160.705 20.192Z" fill="#EE4323"/>
<path d="M11.1612 42.6059C8.70037 41.5116 6.39767 38.7307 6.39217 35.8852C6.38547 32.7829 8.29671 30.149 10.6738 28.4181C10.388 29.5287 10.2322 30.5446 10.9402 31.5381C11.5983 32.4617 12.7511 32.9105 13.8395 32.6669C16.3828 32.0942 16.4995 29.2181 14.9917 27.5425C13.501 25.8832 12.0589 24.0089 12.6263 21.6025C12.9104 20.3962 13.6304 19.2663 14.5425 18.4587C13.8414 20.354 15.8338 22.2232 17.1465 23.1542C19.4236 24.7695 21.922 25.9903 24.0157 27.8839C26.2181 29.874 27.8444 32.5648 27.516 35.6856C27.1601 39.0683 24.5471 41.421 21.6161 42.6087C27.8097 41.2025 34.2093 36.2577 34.3404 29.1918C34.449 23.3787 30.5724 18.905 25.7703 16.3438L25.5194 16.2029C25.6512 16.5319 25.6943 16.8117 25.6893 17.0622C25.7323 16.8774 25.7615 16.6876 25.7697 16.4917C25.7686 16.7244 25.739 16.956 25.6818 17.1811L25.6893 17.0622C25.618 17.3708 25.4979 17.6653 25.3338 17.9338L25.4042 17.8559C24.4462 19.4905 21.8526 19.8454 20.5713 18.1528C18.5116 15.4302 20.6144 12.4948 20.9086 9.61164C21.2769 5.99828 19.074 2.49045 16.3428 0.391296C17.8471 2.89454 15.8652 6.20634 14.2796 8.05783C12.7421 9.85258 10.8723 11.3511 9.175 12.9818C7.35174 14.7332 5.59894 16.5782 4.10029 18.6338C1.103 22.7483 -0.731942 27.9231 0.616513 33.0562C1.96411 38.1857 6.28339 41.4512 11.1612 42.6059Z" fill="#EE4323"/>
</svg>

<svg xmlns="http://www.w3.org/2000/svg" width="162" height="43" fill="#ee4323" xmlns:v="https://vecta.io/nano"><path d="M49.461 30.222c-2.411 0-3.112-1.402-3.112-3.504 0-.7.088-1.49.196-2.323.528-3.634 1.818-5.713 4.93-5.713 2.105 0 3.131.94 3.131 2.648v.833h2.088c.023 0 .023-.767.023-.941 0-2.496-1.513-4.863-5.239-4.863-5.064 0-7.146 2.748-7.913 8.135-.11.723-.176 1.398-.176 2.118 0 3.175 1.25 6.063 5.722 6.063 3.397 0 5.415-1.655 6.598-3.691l-1.995-1.342c-1.293 2.037-2.697 2.579-4.253 2.579zm13.7-10.029c-4.056 0-5.808 2.079-6.4 6.217-.07.479-.107.962-.111 1.446 0 2.671 1.25 4.796 4.712 4.796 4.056 0 5.832-2.168 6.423-6.242.066-.525.11-1.007.11-1.488.001-2.715-1.292-4.729-4.734-4.729zm1.688 6.218c-.439 3.001-1.38 3.92-3.157 3.92-1.424 0-2.125-.591-2.125-2.365 0-.438.044-.963.132-1.555.439-2.978 1.315-3.897 3.113-3.897 1.447 0 2.169.591 2.169 2.386 0 .438-.044.942-.132 1.511zm13.242-9.834l-.679 4.02c-.044.349-.021.233.111.562-.636-.481-1.776-.8-2.544-.8-3.639 0-5.677 1.645-6.334 6.244a8.97 8.97 0 0 0-.11 1.468c0 3.352 1.972 4.601 4.624 4.601 1.119 0 2.215.023 3.069-.698l.218 1.362h2.105l2.455-16.758H78.09zm-2.082 13.118c-.986.59-1.949.723-2.541.723-1.6 0-2.039-.833-2.039-2.168 0-.504.066-1.094.154-1.731.503-3.481 1.622-4.095 3.069-4.095.941 0 1.664.154 2.345.527l-.989 6.743zm11.399-9.503c-4.012 0-5.896 1.904-6.532 6.217-.067.526-.111 1.03-.111 1.512 0 2.956 1.513 4.73 4.844 4.73 2.587 0 4.517-1.074 5.547-3.045l-2.214-.898c-.635.963-1.489 1.62-3.002 1.62-1.622 0-2.28-.436-2.28-1.882 0-.285.022-.699.066-.699h7.912c.111-1.117.241-1.907.241-2.562 0-2.188-.832-4.994-4.47-4.994zm1.512 5.322h-4.822c.483-1.117 1.293-2.847 2.959-2.847 1.293 0 1.929.755 1.929 2.047-.001.219-.021.8-.066.8zm11.394-5.586l.263-2.234h-6.182l-.262 2.234h1.622L94.003 31.1h-1.624l-.261 2.235h6.181l.264-2.235H96.94l1.753-11.172h1.623zm12.561 3.352l.79-2.234h-2.126l-1.534.316c-.855-.546-2.017-.956-3.112-.956-3.135 0-5.808 1.513-5.808 4.951 0 .965.35 1.743.765 2.269-.656.349-1.226.935-1.226 1.725 0 .35.131.708.395 1.036-1.317.79-2.125 2.098-2.125 3.63 0 2.958 3.09 3.588 5.457 3.588 2.981 0 6.532-.68 6.532-4.469 0-1.291-.81-2.3-3.156-2.738l-4.23-.79c-.482-.088-.592-.242-.592-.461 0-.329.2-.503.527-.503l.285.044a8.67 8.67 0 0 0 1.907.198c3.048 0 5.765-1.314 5.765-4.73 0-.482-.087-.809-.306-1.335.372.176.855.46 1.05.46l.742-.001zm-6.027 9.064c.832.154 1.117.46 1.117 1.008 0 1.774-1.907 1.993-3.287 1.993-2.105 0-2.893-.503-2.893-1.621 0-.986.284-1.444.943-2.146l4.12.767zm-.9-5.736c-1.271 0-1.973-.459-1.973-1.555 0-1.62.943-2.562 2.587-2.562 1.315 0 1.952.548 1.952 1.619 0 1.621-.922 2.498-2.566 2.498zm14.714-6.416c-1.228 0-2.323.602-3.683 1.674l-.197-.82h-2.412l-1.687 12.289h2.915l1.272-9.319c.855-.525 1.907-1.288 2.805-1.288 1.096 0 1.491.528 1.491 1.535a11.6 11.6 0 0 1-.067 1.218l-1.072 7.855h2.915l1.073-7.918c.044-.37.088-.981.088-1.33.001-2.083-.986-3.893-3.441-3.893zm8.979 10.064l.022-.301 1.271-8.909h-4.845l-.305 2.234h2.125c-.176 0-.285.196-.307.372l-.877 5.934c-.043.286-.064.88-.064 1.119 0 1.532.832 2.63 2.54 2.63h1.491l.329-2.235h-.942c-.329 0-.438-.582-.438-.844zm1.884-13.679h-2.849c-.176 0-.176-.645-.197-.426l-.396 3.148c-.022.198-.022.629.153.629h2.851c.176 0 .176-.766.197-.965l.396-2.43c.022-.219.022.043-.155.043zm5.945 13.754c-.722 0-1.073-.307-1.073-.963l.022-.045.921-6.043h3.331l1.008-2.234h-4.033l.679-4.917-3.068.98-.549 3.937h-1.775l-.306 2.234h2.06c-.197 1.117-.395.392-.416.612l-.789 5.299c-.044.242-.044.417-.044.635 0 2.081 1.534 2.859 3.377 2.859 1.709 0 3.09-.498 4.165-1.398l-1.36-1.671c-.681.415-1.141.715-2.15.715zm10.697-10.138c-4.011 0-5.896 1.904-6.532 6.217-.066.526-.11 1.03-.11 1.512 0 2.956 1.513 4.73 4.844 4.73 2.587 0 4.517-1.074 5.546-3.045l-2.213-.898c-.635.963-1.491 1.62-3.004 1.62-1.621 0-2.28-.436-2.28-1.882 0-.285.024-.699.068-.699h7.912c.109-1.117.241-1.907.241-2.562 0-2.188-.833-4.994-4.472-4.994zm1.513 5.322h-4.822c.482-1.117 1.292-2.847 2.959-2.847 1.293 0 1.93.755 1.93 2.047-.002.219-.023.8-.067.8zm11.026-5.323c-1.052 0-2.039.603-3.026 1.542l-.175-.688h-2.41l-1.688 12.289h2.937l1.293-9.516c.768-.459 1.644-.851 2.477-.851.527 0 1.03-.084 1.512-.018l.375-2.539c-.441-.087-.879-.218-1.295-.218zM11.161 42.606c-2.461-1.094-4.764-3.875-4.769-6.721-.007-3.102 1.905-5.736 4.282-7.467-.286 1.111-.442 2.127.266 3.12.658.924 1.811 1.372 2.899 1.129 2.543-.573 2.66-3.449 1.152-5.124-1.491-1.659-2.933-3.534-2.365-5.94.284-1.206 1.004-2.336 1.916-3.144-.701 1.895 1.291 3.764 2.604 4.695 2.277 1.615 4.776 2.836 6.869 4.73 2.202 1.99 3.829 4.681 3.5 7.802-.356 3.383-2.969 5.735-5.9 6.923 6.194-1.406 12.593-6.351 12.724-13.417.109-5.813-3.768-10.287-8.57-12.848l-.251-.141c.132.329.175.609.17.859a3.08 3.08 0 0 0 .08-.57c-.001.233-.031.464-.088.689l.008-.119a2.94 2.94 0 0 1-.355.872l.07-.078c-.958 1.635-3.552 1.99-4.833.297-2.06-2.723.043-5.658.337-8.541.368-3.613-1.835-7.121-4.566-9.22 1.504 2.503-.478 5.815-2.063 7.667-1.537 1.795-3.407 3.293-5.105 4.924-1.823 1.751-3.576 3.596-5.075 5.652-2.995 4.113-4.83 9.288-3.481 14.421s5.667 8.395 10.545 9.55z"/></svg>
